source/images/bg-kfh.svg

<svg width="146" height="110" viewBox="0 0 146 110" fill="none" xmlns="http://www.w3.org/2000/svg">
<path fill-rule="evenodd" clip-rule="evenodd" d="M86.3835 42.2732C86.3835 42.2732 85.6894 42.3802 85.6894 42.969C85.6894 43.5579 86.3301 43.7184 86.3301 43.7184C86.3301 43.7184 85.9564 43.3973 86.0098 42.9155C86.1166 42.4337 86.3835 42.2732 86.3835 42.2732ZM85.3157 46.8766V45.3243C85.3157 45.3243 85.3691 44.4678 86.2234 44.4678C87.0776 44.4678 86.9708 45.2172 86.9708 45.2172V46.8231H85.3157V46.8766ZM84.5148 54.6918H87.6115V56.4583H84.5148V54.6918ZM84.5148 47.3049H87.6115V49.0713H84.5148V47.3049ZM85.1555 49.7672H87.0242V54.2101H85.1555V49.7672ZM85.1555 57.1542H87.0242V67.2711H85.1555V57.1542ZM63.1046 66.3611H66.5216V64.4876H69.9388V65.1299H67.5895V66.4146H69.832V67.164H63.1046V66.3611ZM81.5249 63.4705C81.5249 63.4705 80.8307 63.5776 80.8307 64.1664C80.8307 64.7552 81.4714 64.9158 81.4714 64.9158C81.4714 64.9158 81.0977 64.5947 81.1511 64.1129C81.2579 63.6311 81.5249 63.4705 81.5249 63.4705ZM77.5738 67.3246C77.5738 67.3246 78.9086 65.5582 80.9375 65.5582C82.9664 65.5582 84.5148 67.2176 84.5148 67.2176L77.5738 67.3246ZM78.2679 49.3925C79.0154 49.3925 79.9765 48.8037 80.0298 47.4119C80.0832 46.2878 78.6417 45.0567 78.4281 44.4143C78.2145 43.772 78.1611 43.4508 78.1611 43.4508C78.1611 43.4508 77.734 44.0396 77.5738 44.682C77.4136 45.2708 75.9721 46.3949 76.239 47.7331C76.3992 48.5896 77.0933 49.3925 78.2679 49.3925ZM77.2001 49.8207H79.229L80.1366 59.6165H76.239L77.2001 49.8207ZM67.109 56.7259H69.565V59.0812H67.109V56.7259ZM63.2113 56.7259H65.6674V59.0812H63.2113V56.7259ZM63.2113 48.9643H65.6674V51.3195H63.2113V48.9643ZM69.298 51.4266C69.298 51.4266 69.4582 51.0519 69.9921 51.0519C70.5794 51.0519 70.6328 51.3195 70.9532 51.266C71.3269 51.266 71.5939 51.0519 71.5939 51.0519C71.5939 51.0519 71.2736 51.5336 70.8464 51.5872C70.4193 51.6407 70.0989 51.3195 69.7786 51.373C69.5116 51.373 69.298 51.4266 69.298 51.4266ZM68.9243 50.9448C68.9243 50.9448 69.0845 50.2489 69.7252 50.2489C70.4193 50.2489 70.5261 50.5166 71.06 50.4095C71.6473 50.3025 71.9676 50.1419 71.9676 50.1419C71.9676 50.1419 71.5939 50.7307 70.8998 50.8378C70.2591 50.9448 70.0455 50.5166 69.5116 50.6236C69.0845 50.7307 68.9243 50.9448 68.9243 50.9448ZM68.9243 47.8937C68.9243 47.8937 68.9243 47.2513 69.1913 46.3413C69.4582 45.4849 70.0455 44.9496 70.0455 44.9496C70.0455 44.9496 69.9921 45.4849 70.0989 45.8061C70.2057 46.1272 70.5261 46.5555 70.5261 46.5555C70.5261 46.5555 70.7396 45.9131 71.0066 45.5384C71.2736 45.1637 71.5939 44.8961 71.5939 44.8961C71.5939 44.8961 71.3269 46.1808 71.4337 46.716C71.5405 47.2513 71.7541 47.9472 71.7541 47.9472L68.9243 47.8937ZM67.2691 49.2854H71.9143C71.9143 49.2854 71.8075 49.8207 71.2736 49.8742C70.7396 49.9278 70.2591 49.3925 69.4582 49.7137C68.6573 50.0348 68.4438 50.6236 68.4438 50.6236C68.4438 50.6236 67.9098 50.1419 67.6963 49.8742C67.4293 49.6601 67.2691 49.2854 67.2691 49.2854ZM60.6485 42.059H61.2892V43.2367H64.0656V42.059H64.7063V44.5749H64.0122V43.8255H61.2358V44.5214H60.6485V42.059V42.059ZM59.4205 44.5214V40.0785C59.4205 40.0785 59.5807 39.5967 60.0078 39.5967H64.7597V40.2926H60.1146V41.1491H64.7597V41.8449H60.1146V44.4678H59.4205V44.5214ZM57.6052 38.5261H58.4594L58.406 39.222C58.406 39.222 58.7798 38.4726 59.0467 38.4726H64.7063V39.0614H59.2069C59.2069 39.0614 58.5662 40.4532 58.5128 42.0055C58.4594 44.2537 59.1001 44.9496 59.1001 44.9496H64.8131L64.7597 45.6455H58.9934C58.9934 45.6455 58.7264 45.5919 58.5128 45.0031V45.5384H57.6052V38.5261ZM73.1957 38.7403V52.6577H57.6052V47.4119H67.6429V38.7403H73.1957ZM81.2045 38.7403V60.6871H57.6052V55.1201H75.4915V38.7403H81.2045ZM83.2334 38.7403H89.1065V68.4487H57.6052V63.2029H83.2334V38.7403ZM69.7252 82.7409L65.0267 78.1374H94.3923C94.3923 78.1374 96.8484 77.8698 97.2221 76.0498C97.5959 74.2298 97.2221 73.4269 97.2221 73.4269L101.921 69.0911V77.8163C101.921 77.8163 100.532 82.6339 95.5136 82.6339H69.7252V82.7409ZM91.4558 75.8357L84.9419 75.9428L105.658 55.0665C105.658 55.0665 107.206 53.1395 106.192 51.5872C105.178 50.0348 104.377 49.7672 104.377 49.7672L104.644 43.3973L110.837 49.6066C110.837 49.6066 113.24 54.0495 109.716 57.5289L91.4558 75.8357ZM94.7661 34.9932L94.8195 41.5773L74.05 20.7546C74.05 20.7546 72.1278 19.2023 70.5795 20.2193C69.0311 21.2364 68.7641 22.0393 68.7641 22.0393L62.3571 21.7181L68.5505 15.5088C68.5505 15.5088 72.9821 13.1 76.4526 16.6329L94.7661 34.9932ZM102.027 56.4583L97.4357 61.1688V31.728C97.4357 31.728 97.1687 29.2657 95.3534 28.891C93.5381 28.5163 92.7372 28.891 92.7372 28.891L88.4658 24.1804H97.1687C97.1687 24.1804 101.974 25.5722 101.974 30.6039V56.4583H102.027ZM50.3972 72.4634L50.2904 65.9329L71.06 86.7556C71.06 86.7556 72.9821 88.3079 74.5305 87.2909C76.0788 86.2738 76.3458 85.4709 76.3458 85.4709L82.6995 85.7385L76.506 91.9479C76.506 91.9479 72.0744 94.3567 68.604 90.8238L50.3972 72.4634ZM43.0825 50.356L47.6742 45.6455V75.0863C47.6742 75.0863 47.9412 77.5486 49.7565 77.9233C51.5718 78.298 52.3727 77.9233 52.3727 77.9233L56.6975 82.6339H47.9946C47.9946 82.6339 43.1893 81.2421 43.1893 76.2104V50.356H43.0825ZM53.9211 30.4968L60.4349 30.3898L39.6654 51.2125C39.6654 51.2125 38.117 53.1395 39.1315 54.6918C40.1459 56.2442 40.9468 56.5118 40.9468 56.5118L40.6799 62.8817L34.5932 56.7259C34.5932 56.7259 32.1905 52.283 35.7144 48.8037L53.9211 30.4968ZM75.3848 24.0734L80.0833 28.6769H50.7176C50.7176 28.6769 48.2615 28.9445 47.8878 30.7645C47.514 32.5845 47.8878 33.3874 47.8878 33.3874L43.1893 37.7232V28.9445C43.1893 28.9445 44.5775 24.1269 49.5963 24.1269H75.3848V24.0734Z" fill="#3634E3"/>
</svg>

<svg width="146" height="110" fill="none" xmlns="http://www.w3.org/2000/svg"><path fill-rule="evenodd" clip-rule="evenodd" d="M86.383 42.273s-.694.107-.694.696.641.75.641.75-.374-.322-.32-.803c.107-.482.373-.643.373-.643zm-1.067 4.604v-1.553s.053-.856.907-.856c.855 0 .748.75.748.75v1.605h-1.655v.054zm-.801 7.815h3.097v1.766h-3.097v-1.766zm0-7.387h3.097v1.766h-3.097v-1.766zm.64 2.462h1.87v4.443h-1.87v-4.443zm0 7.387h1.87v10.117h-1.87V57.154zm-22.05 9.207h3.417v-1.873h3.417v.642h-2.35v1.285h2.243v.749h-6.727v-.803zm18.42-2.89s-.694.107-.694.695c0 .59.64.75.64.75s-.373-.321-.32-.803c.107-.482.374-.642.374-.642zm-3.951 3.854s1.335-1.767 3.364-1.767c2.028 0 3.577 1.66 3.577 1.66l-6.941.107zm.694-17.933c.747 0 1.709-.588 1.762-1.98.053-1.124-1.388-2.355-1.602-2.998-.213-.642-.267-.963-.267-.963s-.427.589-.587 1.231c-.16.589-1.602 1.713-1.335 3.051.16.857.854 1.66 2.029 1.66zm-1.068.429h2.029l.908 9.796h-3.898l.961-9.796zm-10.09 6.905h2.456v2.355H67.11v-2.355zm-3.898 0h2.456v2.355h-2.456v-2.355zm0-7.762h2.456v2.355h-2.456v-2.355zm6.087 2.463s.16-.375.694-.375c.587 0 .64.267.961.214.374 0 .64-.214.64-.214s-.32.482-.747.535c-.427.054-.747-.268-1.067-.214-.267 0-.481.054-.481.054zm-.374-.482s.16-.696.801-.696c.694 0 .801.268 1.335.16.587-.106.908-.267.908-.267s-.374.589-1.068.696c-.64.107-.855-.321-1.388-.214-.427.107-.588.32-.588.32zm0-3.051s0-.643.267-1.553c.267-.856.855-1.391.855-1.391s-.054.535.053.856c.107.321.427.75.427.75s.214-.643.48-1.018c.268-.374.588-.642.588-.642s-.267 1.285-.16 1.82c.106.535.32 1.231.32 1.231l-2.83-.053zm-1.655 1.391h4.645s-.106.536-.64.59c-.534.053-1.015-.483-1.816-.161-.8.32-1.014.91-1.014.91s-.534-.482-.748-.75c-.267-.214-.427-.589-.427-.589zm-6.62-7.226h.64v1.178h2.777v-1.178h.64v2.516h-.694v-.75h-2.776v.696h-.587V42.06zm-1.229 2.462v-4.443s.16-.481.588-.481h4.752v.696h-4.645v.856h4.645v.696h-4.645v2.623h-.695v.053zm-1.815-5.995h.854l-.053.696s.374-.75.64-.75h5.66v.59h-5.5s-.64 1.391-.693 2.944c-.054 2.248.587 2.944.587 2.944h5.713l-.053.695h-5.767s-.267-.053-.48-.642v.535h-.908v-7.012zm15.59.214v13.918h-15.59v-5.246h10.038V38.74h5.553zm8.01 0v21.947h-23.6V55.12h17.887V38.74h5.712zm2.028 0h5.873v29.71h-31.5v-5.246h25.627V38.74zm-13.508 44l-4.698-4.603h29.365s2.456-.267 2.83-2.087c.374-1.82 0-2.623 0-2.623l4.699-4.336v8.725s-1.389 4.818-6.407 4.818h-25.79v.107zm21.73-6.904l-6.513.107 20.716-20.877s1.548-1.927.534-3.479-1.815-1.82-1.815-1.82l.267-6.37 6.193 6.21s2.403 4.443-1.121 7.922l-18.26 18.307zm3.311-40.843l.053 6.584-20.77-20.822s-1.922-1.553-3.47-.536c-1.549 1.017-1.816 1.82-1.816 1.82l-6.407-.32 6.194-6.21s4.431-2.409 7.902 1.124l18.313 18.36zm7.261 21.465l-4.591 4.71v-29.44s-.267-2.462-2.083-2.837c-1.815-.375-2.616 0-2.616 0l-4.271-4.71h8.703s4.805 1.391 4.805 6.423v25.854h.053zm-51.63 16.005l-.107-6.53 20.77 20.823s1.922 1.552 3.47.535c1.549-1.017 1.816-1.82 1.816-1.82l6.353.267-6.193 6.21s-4.432 2.409-7.902-1.124l-18.207-18.36zm-7.314-22.107l4.591-4.71v29.44s.267 2.463 2.083 2.837c1.815.375 2.616 0 2.616 0l4.325 4.71h-8.703s-4.806-1.39-4.806-6.423V50.356h-.106zm10.838-19.86l6.514-.106-20.77 20.822s-1.548 1.927-.533 3.48c1.014 1.552 1.815 1.82 1.815 1.82l-.267 6.37-6.087-6.156s-2.403-4.443 1.121-7.922l18.207-18.307zm21.464-6.423l4.698 4.604H50.718s-2.457.268-2.83 2.088c-.374 1.82 0 2.622 0 2.622l-4.699 4.336v-8.778s1.389-4.818 6.407-4.818h25.789v-.054z" fill="#3634E3"/></svg>
